!!! OTL: Berkowitz517
!!! Chapter: 1
!!! Section: IV
!!! Page: 129
!!! Mode: 
!!! Encoder: DJB
**kern
*staff1
*I"Piano
=1-
*clefG2
*k[b-]
*F:
*M3/4
8f/L
8a/J
8cc\L
8b-\J
8a/L
8g/J
=2
4a/
2f/
=3
8a-\L
8cc\J
8ee-\L
8dd-\J
8cc\L
8b-\J
=4
4cc\
8r
8dd-\
8b-/L
8a-/J
=5
4g/
8r
8cc\
8a/L
8g/J
=6
4f/
8r
8b-\
8g/L
8f/J
=7
8e/L
8f/J
8g/L
8a/J
8b-\L
8cc\J
=8
2.dd\
=9
!!linebreak:original
8e/L
8f/J
8g/L
8a-/J
8b-\L
8cc\J
=10
2.dd-\
=11
8ee-\L
8dd-\J
8cc\L
8b-\J
8a/L
8g/J
=12
4a/
4cc\
4f/
=13
8e/L
8g/J
8cc\L
8b-\J
8a/L
8g/J
=14
2.f/
==
*-
